img/svg/form-label-icons/user-ico.svg

<svg width="20" height="20" viewBox="0 0 20 20" fill="none" xmlns="http://www.w3.org/2000/svg">
<g clip-path="url(#clip0)">
<path d="M19.9496 17.1376C19.8617 16.7152 19.4481 16.4441 19.0255 16.532C18.6031 16.6199 18.332 17.0337 18.42 17.4561C18.4706 17.6994 18.4103 17.9488 18.2545 18.1404C18.1643 18.2514 17.963 18.4375 17.6295 18.4375H2.37117C2.03766 18.4375 1.83644 18.2513 1.74621 18.1404C1.59039 17.9488 1.53008 17.6994 1.58074 17.4561C2.39152 13.5617 5.82648 10.717 9.79324 10.621C9.86195 10.6237 9.93098 10.625 10.0004 10.625C10.07 10.625 10.1393 10.6236 10.2082 10.621C13.0025 10.688 15.5851 12.1033 17.1491 14.4358C17.3894 14.7942 17.8747 14.8899 18.2331 14.6496C18.5915 14.4094 18.6872 13.9241 18.4469 13.5657C17.165 11.6538 15.3036 10.2636 13.1811 9.56504C14.4745 8.59516 15.3129 7.04988 15.3129 5.3125C15.3129 2.3832 12.9297 0 10.0004 0C7.07102 0 4.68785 2.3832 4.68785 5.3125C4.68785 7.05094 5.52723 8.59703 6.82195 9.56684C5.6357 9.95738 4.52262 10.5651 3.5484 11.3664C1.76199 12.8358 0.519921 14.8854 0.0510543 17.1376C-0.0958988 17.8433 0.0801559 18.5682 0.533984 19.1262C0.985586 19.6815 1.65523 20 2.37117 20H17.6295C18.3455 20 19.0151 19.6815 19.4667 19.1262C19.9206 18.5682 20.0966 17.8433 19.9496 17.1376ZM6.25035 5.3125C6.25035 3.24473 7.93258 1.5625 10.0004 1.5625C12.0681 1.5625 13.7504 3.24473 13.7504 5.3125C13.7504 7.3166 12.1701 8.95855 10.1902 9.05773C10.127 9.05656 10.0637 9.05598 10.0004 9.05598C9.9373 9.05598 9.87426 9.0566 9.81129 9.05777C7.83102 8.95898 6.25035 7.31688 6.25035 5.3125Z" fill="#4C51CC"/>
</g>
<defs>
<clipPath id="clip0">
<rect width="20" height="20" fill="white"/>
</clipPath>
</defs>
</svg>

<svg width="20" height="20" fill="none" xmlns="http://www.w3.org/2000/svg"><g clip-path="url(#clip0)"><path d="M19.95 17.138a.781.781 0 10-1.53.318.816.816 0 01-.166.684.794.794 0 01-.625.297H2.372a.794.794 0 01-.625-.297.816.816 0 01-.165-.684c.81-3.894 4.245-6.739 8.212-6.835a5.275 5.275 0 00.415 0 8.594 8.594 0 016.941 3.815.781.781 0 001.298-.87 10.162 10.162 0 00-5.266-4.001 5.308 5.308 0 002.132-4.252A5.319 5.319 0 0010 0a5.319 5.319 0 00-5.312 5.313 5.31 5.31 0 002.134 4.254c-1.186.39-2.3.998-3.274 1.8a10.192 10.192 0 00-3.497 5.77A2.372 2.372 0 002.371 20H17.63a2.372 2.372 0 002.32-2.862zM6.25 5.312A3.754 3.754 0 0110 1.563a3.754 3.754 0 013.75 3.75 3.755 3.755 0 01-3.56 3.746 10.257 10.257 0 00-.379 0 3.755 3.755 0 01-3.56-3.745z" fill="#4C51CC"/></g><defs><clipPath id="clip0"><path fill="#fff" d="M0 0h20v20H0z"/></clipPath></defs></svg>
